svgs/duotone/battery-empty.svg

<svg xmlns="http://www.w3.org/2000/svg" viewBox="0 0 576 512"><!-- Font Awesome Pro 6.0.0-alpha2 by @fontawesome - https://fontawesome.com License - https://fontawesome.com/license (Commercial License) --><defs><style>.fa-secondary{opacity:.4}</style></defs><path d="M544 192V160C544 124.654 515.346 96 480 96H64C28.654 96 0 124.654 0 160V352C0 387.346 28.654 416 64 416H480C515.346 416 544 387.346 544 352V320C561.674 320 576 305.674 576 288V224C576 206.326 561.674 192 544 192ZM480 352H64V160H480V352Z" class="fa-secondary"/></svg>

<svg xmlns="http://www.w3.org/2000/svg" viewBox="0 0 576 512"><!--! Font Awesome Pro 6.0.0-alpha3 by @fontawesome - https://fontawesome.com License - https://fontawesome.com/license (Commercial License) --><defs><style>.fa-secondary{opacity:.4}</style></defs><path class="fa-secondary" d="M544 192V160c0-35.35-28.65-64-64-64H64C28.65 96 0 124.7 0 160v192c0 35.35 28.65 64 64 64h416c35.35 0 64-28.65 64-64v-32c17.67 0 32-14.33 32-32V224C576 206.3 561.7 192 544 192zM480 352H64V160h416V352z"/></svg>
